icons/linear-ele-tool-edit-pencil.svg

<svg xmlns="http://www.w3.org/2000/svg" width="32px" height="32px" viewBox="0 0 32 32" version="1.1">
    <title>linear-ele-tool-edit-pencil</title>
    <g id="linear-ele-tool-edit-pencil" stroke-width="1" fill-rule="evenodd">
        <path d="M16.1028834,1.75961894 L23.8971143,6.25961894 C24.3754069,6.53576132 24.5392821,7.14735172 24.2631397,7.62564435 L12.7631397,27.5442286 C12.6396188,27.7581731 12.4412772,27.9188236 12.2063436,27.9952162 L5.80922925,30.0753432 C5.24451713,30.2589686 4.64513778,29.9129168 4.52180602,29.332049 L3.1246917,22.751922 C3.07338276,22.5102672 3.11333939,22.2581731 3.23686028,22.0442286 L14.7368603,2.12564435 C15.0130027,1.64735172 15.6245931,1.48347657 16.1028834,1.75961894 Z M28,28 C28.5522847,28 29,28.4477153 29,29 C29,29.5522847 28.5522847,30 28,30 L16,30 C15.4477153,30 15,29.5522847 15,29 C15,28.4477153 15.4477153,28 16,28 L28,28 Z M5.26688335,23.2154774 L6.2475,27.8296477 L10.7308834,26.3704774 L5.26688335,23.2154774 Z M12.9688834,9.18747737 L5.96888335,21.3114774 L12.0308834,24.8114774 L19.0308834,12.6874774 L12.9688834,9.18747737 Z M15.9689111,3.99166975 L13.9688834,7.45547737 L20.0308834,10.9554774 L22.0310889,7.49166975 L15.9689111,3.99166975 Z" id="&#24418;&#29366;" fill-rule="nonzero" />
    </g>
</svg>

<svg xmlns="http://www.w3.org/2000/svg" viewBox="0 0 32 32"><path fill="currentColor" d="m16.103 1.76 7.794 4.5a1 1 0 0 1 .366 1.366l-11.5 19.918a1 1 0 0 1-.557.451l-6.397 2.08a1 1 0 0 1-1.287-.743l-1.397-6.58a1 1 0 0 1 .112-.708l11.5-19.918a1 1 0 0 1 1.366-.366M28 28a1 1 0 0 1 0 2H16a1 1 0 0 1 0-2zM5.267 23.215l.98 4.615 4.484-1.46zm7.702-14.028-7 12.124 6.062 3.5 7-12.124zm3-5.195-2 3.463 6.062 3.5 2-3.463z"/></svg>
